src/shared/assets/dialog/dialog-page-style-settings/dialogPageStyleSettings-close.svg

<svg width="28" height="28" viewBox="0 0 28 28" fill="none" xmlns="http://www.w3.org/2000/svg">
<path d="M14 3.64583C19.799 3.64583 24.5 8.34684 24.5 14.1458C24.5 19.9448 19.799 24.6458 14 24.6458C8.20101 24.6458 3.5 19.9448 3.5 14.1458C3.5 8.34684 8.20101 3.64583 14 3.64583ZM18.3252 9.82063C17.8696 9.36526 17.1303 9.3651 16.6748 9.82063L14 12.4954L11.3252 9.82063C10.8696 9.36526 10.1303 9.3651 9.6748 9.82063C9.21927 10.2762 9.21943 11.0154 9.6748 11.471L12.3496 14.1458L9.6748 16.8206C9.21927 17.2762 9.21943 18.0154 9.6748 18.471C10.1304 18.9263 10.8697 18.9265 11.3252 18.471L14 15.7962L16.6748 18.471C17.1304 18.9263 17.8697 18.9265 18.3252 18.471C18.7807 18.0155 18.7805 17.2763 18.3252 16.8206L15.6504 14.1458L18.3252 11.471C18.7807 11.0155 18.7805 10.2763 18.3252 9.82063Z" fill="#0B1426" fill-opacity="0.22"/>
</svg>

<svg xmlns="http://www.w3.org/2000/svg" fill="none" viewBox="0 0 28 28"><path fill="#0b1426" fill-opacity=".22" d="M14 3.646c5.799 0 10.5 4.7 10.5 10.5s-4.701 10.5-10.5 10.5-10.5-4.701-10.5-10.5 4.701-10.5 10.5-10.5m4.325 6.175a1.17 1.17 0 0 0-1.65 0L14 12.495l-2.675-2.674a1.168 1.168 0 0 0-1.65 1.65l2.675 2.675-2.675 2.675a1.168 1.168 0 0 0 1.65 1.65L14 15.796l2.675 2.675a1.168 1.168 0 0 0 1.65-1.65l-2.675-2.675 2.675-2.675a1.17 1.17 0 0 0 0-1.65"/></svg>
